Simply-Purple-Circles/scalable/places/gnome-fs-directory-accept.svg

<svg xmlns="http://www.w3.org/2000/svg" width="48" height="48" viewBox="0 0 12.7 12.7"><path fill="#963996" d="M6.344.073a6.29 6.29 0 0 0-6.29 6.29 6.29 6.29 0 0 0 6.29 6.288 6.29 6.29 0 0 0 6.29-6.289 6.29 6.29 0 0 0-6.29-6.29zm-.018.936a5.407 5.407 0 0 1 5.407 5.407 5.407 5.407 0 0 1-5.407 5.407A5.407 5.407 0 0 1 .92 6.416 5.407 5.407 0 0 1 6.326 1.01zM2.784 3.06a.643.643 0 0 0-.645.644v1.074c0 .017.004.033.006.05v3.142h-.006v1.006c0 .357.287.645.644.645h7.181a.643.643 0 0 0 .644-.645v-.862h.001V3.778H5.946l-.72-.719H2.785zm.284 1.377H9.66a.31.31 0 0 1 .311.312v.282h-6.72c-.01 0-.018.005-.028.006a.237.237 0 0 0-.203.24c0 .012.005.024.007.036-.002.016-.007.03-.007.046v1.114c0 .182.113.329.254.329.141 0 .255-.147.255-.329v-.951h6.442v3.105a.31.31 0 0 1-.311.312H3.068a.31.31 0 0 1-.312-.312V4.748a.31.31 0 0 1 .312-.312z"/></svg>

<?xml version="1.0" encoding="UTF-8" standalone="no"?>
<svg
   xmlns:dc="http://purl.org/dc/elements/1.1/"
   xmlns:cc="http://creativecommons.org/ns#"
   xmlns:rdf="http://www.w3.org/1999/02/22-rdf-syntax-ns#"
   xmlns:svg="http://www.w3.org/2000/svg"
   xmlns="http://www.w3.org/2000/svg"
   xmlns:sodipodi="http://sodipodi.sourceforge.net/DTD/sodipodi-0.dtd"
   xmlns:inkscape="http://www.inkscape.org/namespaces/inkscape"
   width="48"
   height="48"
   viewBox="0 0 12.7 12.7"
   version="1.1"
   id="svg4"
   sodipodi:docname="gnome-fs-directory-accept.svg"
   inkscape:version="0.92.4 (5da689c313, 2019-01-14)">
  <metadata
     id="metadata10">
    <rdf:RDF>
      <cc:Work
         rdf:about="">
        <dc:format>image/svg+xml</dc:format>
        <dc:type
           rdf:resource="http://purl.org/dc/dcmitype/StillImage" />
        <dc:title></dc:title>
      </cc:Work>
    </rdf:RDF>
  </metadata>
  <defs
     id="defs8" />
  <sodipodi:namedview
     pagecolor="#ffffff"
     bordercolor="#666666"
     borderopacity="1"
     objecttolerance="10"
     gridtolerance="10"
     guidetolerance="10"
     inkscape:pageopacity="0"
     inkscape:pageshadow="2"
     inkscape:window-width="1085"
     inkscape:window-height="480"
     id="namedview6"
     showgrid="false"
     inkscape:zoom="4.9166667"
     inkscape:cx="2.1355932"
     inkscape:cy="24"
     inkscape:window-x="0"
     inkscape:window-y="25"
     inkscape:window-maximized="0"
     inkscape:current-layer="svg4" />
  <path
     d="m 6.344,0.073 a 6.29,6.29 0 0 0 -6.29,6.29 6.29,6.29 0 0 0 6.29,6.288 6.29,6.29 0 0 0 6.29,-6.289 6.29,6.29 0 0 0 -6.29,-6.29 z M 6.326,1.009 A 5.407,5.407 0 0 1 11.733,6.416 5.407,5.407 0 0 1 6.326,11.823 5.407,5.407 0 0 1 0.92000003,6.416 5.407,5.407 0 0 1 6.326,1.01 Z M 2.784,3.06 A 0.643,0.643 0 0 0 2.139,3.704 v 1.074 c 0,0.017 0.004,0.033 0.006,0.05 V 7.97 H 2.139 v 1.006 c 0,0.357 0.287,0.645 0.644,0.645 H 9.9640003 A 0.643,0.643 0 0 0 10.608,8.976 V 8.114 h 10e-4 V 3.778 H 5.946 L 5.226,3.059 H 2.785 Z m 0.284,1.377 h 6.5920003 a 0.31,0.31 0 0 1 0.311,0.312 V 5.031 H 3.251 c -0.01,0 -0.018,0.005 -0.028,0.006 A 0.237,0.237 0 0 0 3.02,5.277 c 0,0.012 0.005,0.024 0.007,0.036 C 3.025,5.329 3.02,5.343 3.02,5.359 v 1.114 c 0,0.182 0.113,0.329 0.254,0.329 0.141,0 0.255,-0.147 0.255,-0.329 V 5.522 h 6.4420003 v 3.105 a 0.31,0.31 0 0 1 -0.311,0.312 H 3.068 A 0.31,0.31 0 0 1 2.756,8.627 V 4.748 A 0.31,0.31 0 0 1 3.068,4.436 Z"
     id="path2"
     inkscape:connector-curvature="0"
     style="fill:#963996" />
</svg>
